X:563
T:An Crann-tara
T:The Fire-Cross Song
S:Simon Fraser Collection
M:6/8
L:1/8
K:GPhr
   B   |G2G G>FG|Gcc c2d|e2e e>de  |dff f2
   b   |g2g gfe |f2f fed|c2d c/d/ec|BGG G2:|
   G/F/|EGE DFD |Ccc c2d|ege dbB   |dff f2
[1 b   |g2g gfe |f2f fed|c2d c/d/ec|BGG G2:|
[2 E/F/|GeG FdF |EcE Dfa|gfe dec   |BGG G2|]


